!!!!SEGMENT: pl-wtm--r-1175--001-003_lessel-franciszek--quartetto-no-6-menuetto.krn
!!!cenid: 18xx:1627
!!!COM: Lessel, Franciszek
!!!COM-rismID: pe30004332
!!!CDT: 1780-1838/12/26
!!!CNT: Polish
!!!OPR: Quartetto No 6
!!!OTL: Menuetto
!!!OMV: 003
!!!PDT:
!!!AGN: Secular; String quartet; Minuet
!!!SMS-siglum: PL-Wtm
!!!SMS-shelfmark: R 1175
!!!SMS-shelfwork: 001-003 M
!!!SMS-variant:
!!!SMS-altvar:
!!!NIFC-rismSourceID: 1001085812
!!!NIFC-rismChildID: 1001085812
!!!NIFC-islandoraID:
!!!URL-pdf-islandora:
!!!URL-scan:
!!!IIIF:
!!!ONB-nifc: UWAGA: części Kwartetu: 1. Allegro di molto (łącznie z początkowym Adagio), 2. Andante, 3. Menuetto, 4. Fuga
!!!AIN: 1 viola
!!!key:
**kern	**dynam
*Iviola	*
*I"Viola	*
*I'vla	*
*clefC3	*
*k[f#c#]	*
*G:	*
*M3/4	*
=1	=1
!!!OMD: All(egr)o
!!!OMD-mod: Allegro
!LO:MO:mod=!null:null	!
!LO:TX:i:t=Menuetto	!
8D/L	.
8F#/J	.
2D/	f
=2	=2
8D/L	.
8F#/J	.
2D/	.
=3	=3
8F#/L	.
8A/	.
8F#/	.
8A/	.
8F#/	.
8A/J	.
=4	=4
4G'/	.
4F#'/	.
4r	.
!LO:LB:g=original	!
=5	=5
4r	.
4r	.
4g\	p
=6	=6
4r	.
4r	.
4g\	.
=7	=7
4r	.
4g 4A\	.
4g 4A\	.
=8	=8
4g 4A\	.
4r	.
4r	.
=9:|!|:	=9:|!|:
8D/L	.
!	!LO:MO:mod=!null:null
8F#/J	f
!	!LO:DY:t= :mod=%s
!	!LO:MO:mod=!LO&colon;DY&colon;ed=
!	!null
2D/	f
=10	=10
4G/	.
4r	.
4b 4d 4G\	.
!LO:LB:g=original	!
=11	=11
4r	.
4r	.
4d#X\	.
=12	=12
4e\	.
4r	.
4r	.
=13	=13
!	!LO:MO:mod=!null:null
!	!LO:DY:t=po.
!	!LO:MO:mod=!null:null
4r	p
!	!LO:DY:t= :mod=%s
!	!LO:MO:mod=!LO&colon;DY&colon;ed=
!	!null
4E/	p
4E/	.
=14	=14
4r	.
4E/	.
4E/	.
=15	=15
4r	.
4E/	.
4E/	.
=16	=16
4E/	.
4r	.
4r	.
!LO:LB:g=original	!
=17	=17
!	!LO:MO:mod=!null:null
4r	f
!	!LO:DY:t= :mod=%s
!	!LO:MO:mod=!LO&colon;DY&colon;ed=
!	!null
8D/L	f
8F#/J	.
[4D/	.
=18	=18
4D/]	.
8D/L	.
8F#/J	.
[4D/	.
=19	=19
4D/]	.
8F#/L	.
8A/	.
8F#/	.
8A/J	.
=20	=20
4G/	.
4F#/	.
!	!LO:MO:mod=!null:null
4r	p
=21	=21
!	!LO:DY:t= :mod=%s
!	!LO:MO:mod=!LO&colon;DY&colon;ed=
!	!null
4e 4A'\	p
4f# 4A'\	.
4r	.
=22	=22
!	!LO:MO:mod=!null:null
4r	fz
*2\right	*
!	!LO:DY:t= :mod=%s
!	!LO:MO:mod=!LO&colon;DY&colon;ed=
!	!null
2dd 2d\	fz
!LO:LB:g=original	!
=23	=23
4dd 4d\	.
4a\	.
4a\	.
=24	=24
4b\	.
4r	.
4e\	p
=25	=25
(4d\	.
4A\)	.
!	!LO:MO:mod=!null:null
!	!LO:HP:t=dimin
4A\	>
=26	=26
(4d\	.
4A\)	.
4A\	.
=27	=27
(4d\	.
!	!LO:DY:u:t=pp
4A\)	pp
4A\	.
=28	=28
2A/	.
4r	.
!LO:LB:g=original	!
=29:|!	=29:|!
*ok[c#f#cn]	*
*k[f#]	*
*M3/4	*
!!!OMD: Trio
!!!OMD-mod: Trio
!	!LO:MO:mod=!null:null
!	!LO:DY:t=fo.
4B 4D/	f
8BL 8D/	.
8G/	.
8B 8D/	.
8G/J	.
=30	=30
4B 4D/	.
4r	.
4r	.
=31	=31
4B 4D/	p
4B 4D/	.
4B 4D/	.
=32	=32
4B 4D/	.
4B 4D/	.
4B 4D/	.
=33	=33
4B 4D/	.
4B 4D/	.
4B 4D/	.
!LO:LB:g=original	!
=34	=34
4B 4D/	.
4B 4D/	.
4B 4D/	.
=35	=35
4B 4D/	.
4B 4D/	.
4B 4D/	.
=36	=36
4B 4D/	.
4B 4D/	.
4B 4D/	.
=37	=37
4A 4D/	.
4A 4D/	.
4B 4D/	.
=38	=38
4A 4D/	.
4r	.
4r	.
=39	=39
4r	.
4d 4B\	.
4d 4B\	.
=40	=40
4d 4B\	.
4d 4B\	.
4d 4B\	.
!LO:LB:g=original	!
=41	=41
4d 4B\	.
4d 4B\	.
4d 4B\	.
=42	=42
4d 4B\	.
4d 4B\	.
4d 4B\	.
=43	=43
!	!LO:MO:mod=!null:null
!	!LO:DY:t=fo.
4B/	f
(8D/L	.
8E/	.
8F#/	.
8G/J)	.
=44	=44
(8A\L	.
8B\	.
8c\	.
8d\J)	.
4d\	.
=45	=45
(8c\L	.
8d\	.
8e\)	.
8c\	.
8A'\	.
8f#'\J	.
=46	=46
4g\	.
4r	.
=!|:	=!|:
4r	.
!LO:LB:g=original	!
=47	=47
4r	.
4G/	p
!	!LO:MO:mod=!null:null
!	!LO:DY:t=mf.
4G/	mf
=48	=48
4r	.
4G/	.
4G/	.
=49	=49
4r	.
4F#/	.
4F#/	.
=50	=50
4r	.
4F#/	.
4F#/	.
=51	=51
4r	.
4G/	.
4G/	.
=52	=52
4r	.
4G/	.
4G/	.
=53	=53
4r	.
4F#/	.
4F#/	.
!LO:LB:g=original	!
=54	=54
4G/	.
4E/	.
4r	.
=55	=55
!	!LO:MO:mod=!null:null
!	!LO:DY:u:t=pp.
!	!LO:MO:mod=!null:null
4r	pp
!	!LO:DY:t= :mod=%s
!	!LO:MO:mod=!LO&colon;DY&colon;ed=
!	!null
4B 4D/	pp
4B 4D/	.
=56	=56
4B 4D/	.
4B 4D/	.
4B 4D/	.
=57	=57
4B 4D/	.
4B 4D/	.
4B 4D/	.
=58	=58
4B 4D/	.
4B 4D/	.
4B 4D/	.
=59	=59
4B 4D/	.
4B 4D/	.
4B 4D/	.
=60	=60
4B 4D/	.
4B 4D/	.
4B 4D/	.
!LO:LB:g=original	!
=61	=61
4A 4D/	.
4A 4D/	.
4B 4D/	.
=62	=62
4A 4D/	.
4r	.
4r	.
=63	=63
4r	.
4d 4B\	.
4d 4B\	.
=64	=64
4d 4B\	.
4d 4B\	.
4d 4B\	.
=65	=65
4d 4B\	.
4d 4B\	.
4d 4B\	.
=66	=66
4d 4B\	.
4d 4B\	.
4d 4B\	.
=67	=67
!	!LO:MO:mod=!null:null
!	!LO:DY:t=fo.
4B/	f
(8D/L	.
8E/	.
8F#/	.
8G/J)	.
=68	=68
(8A\L	.
8B\	.
8c\	.
8d\J)	.
4d\	.
!LO:LB:g=original	!
=69	=69
8c\L	.
8d\	.
8e\	.
8c\	.
8A\	.
8f#\J	.
=70	=70
4g\	.
!LO:MO:mod=!null:null	!
!LO:TX:b:i:t=M.D.C.	!
4r	.
!LO:PB:g=original	!
==:|!	==:|!
*-	*-
!!!RDF**kern: > = above
!!!RDF**kern: < = below
!!!RDF**dynam: f = "fo"
!!!RDF**dynam: p = "po"
!!!filter-modern: tie -s | humtr -p | sic -sq | shed -e "s/LO:DY:(a|b|rj)/LO:dy:$1/L" | shed -e "s/TX(.*):t=P:/tx$1:t=P:/LG" | modori -m | autostem -r | shed -e "s/yy//" | shed -k -e "s/\(y([^y])/($1/" | shed -e "s/-//B" | shed -e "s/^(\d+[\/\\]right)/$1yy/I; s/^(\d+[\/\\]left)/$1yy/I" | shed -e "s/^(X?)rep$/$1REP/I" | shed -k -e "s/[<>]//g" | shed -e "s/^custos:/Xcustos:/I" | shed -k -e "s/:TUP:/:tup:/L" | shed -k -e "s/r[a-gA-G]+/r/D" | rid -lid
!!!ENC: Kamil Watkowski
!!!END: 2021-03-27
!!!ENC: Marta Chmielewska
!!!END: 2021-04-13
!!!EED-modern: Antoni Szymański
!!!END-modern: 2022-07-29
!!!YEC: Copyright 2022 Narodowy Instytut Fryderyka Chopina (https://polishscores.org)
!!!YEM: License CC-BY-4.0 (https://creativecommons.org/licenses/by/4.0)
